packages/kaspersky-hexa-ui-icons/src/iconsSVGs/16x12/FlagDm.svg

<svg width="16" height="12" viewBox="0 0 16 12" fill="none" xmlns="http://www.w3.org/2000/svg">
<g clip-path="url(#clip0_41813_1971)">
<mask id="mask0_41813_1971" style="mask-type:luminance" maskUnits="userSpaceOnUse" x="0" y="0" width="16" height="12">
<rect width="16" height="12" rx="2" fill="white"/>
</mask>
<g mask="url(#mask0_41813_1971)">
<path fill-rule="evenodd" clip-rule="evenodd" d="M0 4.8H16V0H0V4.8Z" fill="#108753"/>
<path fill-rule="evenodd" clip-rule="evenodd" d="M0 12H16V7.20001H0V12Z" fill="#108753"/>
<path d="M9.14258 0V4.7998H16V7.2002H9.14258V12H6.85742V7.2002H0V4.7998H6.85742V0H9.14258Z" fill="white"/>
<path d="M8.38086 0V5.59961H16V6.40039H8.38086V12H7.61914V6.40039H0V5.59961H7.61914V0H8.38086Z" fill="#262626"/>
<path d="M7.61914 0V4.7998H16V5.59961H7.61914V12H6.85742V5.59961H0V4.7998H6.85742V0H7.61914Z" fill="#FCD449"/>
<ellipse cx="8.00004" cy="6.00001" rx="2.66667" ry="2.8" fill="url(#paint0_linear_41813_1971)"/>
<ellipse cx="7.99998" cy="6" rx="1.90476" ry="2" stroke="#0E673F" stroke-width="0.8" stroke-linecap="round" stroke-dasharray="0.5 1.5"/>
<ellipse cx="8" cy="6.00001" rx="0.381962" ry="0.8" fill="#0E673F"/>
</g>
</g>
<defs>
<linearGradient id="paint0_linear_41813_1971" x1="5.33337" y1="3.20001" x2="5.33337" y2="8.80001" gradientUnits="userSpaceOnUse">
<stop stop-color="#E02C42"/>
<stop offset="1" stop-color="#D22036"/>
</linearGradient>
<clipPath id="clip0_41813_1971">
<rect width="16" height="12" fill="white"/>
</clipPath>
</defs>
</svg>

<svg xmlns="http://www.w3.org/2000/svg" width="16" height="12" fill="none" viewBox="0 0 16 12"><g clip-path="url(#a)"><mask id="b" width="16" height="12" x="0" y="0" maskUnits="userSpaceOnUse" style="mask-type:luminance"><rect width="16" height="12" fill="#fff" rx="2"/></mask><g mask="url(#b)"><path fill="#108753" fill-rule="evenodd" d="M0 4.8h16V0H0zM0 12h16V7.2H0z" clip-rule="evenodd"/><path fill="#fff" d="M9.1426 0v4.7998H16v2.4004H9.1426V12H6.8574V7.2002H0V4.7998h6.8574V0z"/><path fill="#262626" d="M8.3809 0v5.5996H16v.8008H8.3809V12H7.619V6.4004H0v-.8008h7.6191V0z"/><path fill="#fcd449" d="M7.6191 0v4.7998H16v.7998H7.6191V12h-.7617V5.5996H0v-.7998h6.8574V0z"/><circle cx="8" cy="6" r="3" fill="url(#c)"/><circle cx="8" cy="6" r="2" stroke="#0e673f" stroke-dasharray="0.5 1.5" stroke-linecap="round"/></g></g><defs><linearGradient id="c" x1="5" x2="5" y1="3" y2="9" gradientUnits="userSpaceOnUse"><stop stop-color="#e02c42"/><stop offset="1" stop-color="#d22036"/></linearGradient><clipPath id="a"><path fill="#fff" d="M0 0h16v12H0z"/></clipPath></defs></svg>
